src/assets/outline/Nem.svg

<?xml version="1.0" encoding="UTF-8"?>
<svg width="24" height="24" viewBox="0 0 24 24" xmlns="http://www.w3.org/2000/svg">
 <path d="m12.03 22.85-0.3701-0.18c-0.1-0.05-10.42-5.35-10.42-17.67v-0.41999l0.35999-0.22001c0.1-0.06 10.51-6.16 20.77 0l0.36 0.22001v0.41999c0 0.47-0.12 11.5-10.36 17.64l-0.3399 0.21zm-9.2801-17.41c0.21 9.84 7.52 14.69 9.23 15.69 8.08-5.08 9.12-13.71 9.25-15.71-8.31-4.72-16.64-0.92999-18.48 0.02001z"/>
 <path d="m7.0998 13.21c-0.34 0-0.67997-0.04-1.03-0.12-2.08-0.49-3.65-2.44-4.69-5.8-0.12-0.4 0.1-0.82001 0.5-0.94001s0.82 0.1 0.94 0.5c0.87 2.81 2.08 4.42 3.6 4.78 1.81 0.42 3.87-1.05 4.78-1.9-0.82-6.29 4.6599-7.52 4.7199-7.53l0.6001-0.11999c0.4-0.08 0.8 0.18999 0.88 0.58999s-0.19 0.80001-0.59 0.88001l-0.5901 0.11c-0.16 0.04-4.3399 1.01-3.4799 6.2 0.04 0.23003-0.0301 0.47003-0.2001 0.64003-0.11 0.14-2.59 2.71-5.44 2.71z"/>
 <path d="m16.35 19.26c-0.11 0-0.22-0.02-0.32-0.07-0.37-0.18-0.53-0.62-0.35-1 0.01-0.02 0.86-1.86 0.11-3.83-0.58-1.52-1.95-2.75-4.08-3.67-0.38-0.16-0.56-0.6-0.39-0.97998 0.17-0.38 0.6-0.56 0.99-0.39 2.53 1.08 4.17 2.61 4.9 4.54 0.97 2.58-0.12 4.89-0.17 4.99-0.14 0.25-0.41 0.41-0.69 0.41z"/>
</svg>

<svg width="24" height="24" viewBox="0 0 24 24"  xmlns="http://www.w3.org/2000/svg">
<path d="M12.0303 22.8505L11.6602 22.6705C11.5602 22.6205 1.24023 17.3205 1.24023 5.00053V4.58054L1.60022 4.36053C1.70022 4.30053 12.1102 -1.79946 22.3702 4.36053L22.7302 4.58054V5.00053C22.7302 5.47053 22.6102 16.5005 12.3702 22.6405L12.0303 22.8505ZM2.75024 5.44054C2.96024 15.2805 10.2702 20.1305 11.9802 21.1305C20.0602 16.0505 21.1002 7.42053 21.2302 5.42053C12.9202 0.700533 4.59024 4.49054 2.75024 5.44054Z" />
<path d="M7.09984 13.2105C6.75984 13.2105 6.41987 13.1705 6.06987 13.0905C3.98987 12.6005 2.41987 10.6505 1.37987 7.29047C1.25987 6.89047 1.47987 6.47046 1.87987 6.35046C2.27987 6.23046 2.69987 6.45046 2.81987 6.85046C3.68987 9.66046 4.89985 11.2705 6.41985 11.6305C8.22985 12.0505 10.2899 10.5805 11.1999 9.73047C10.3799 3.44047 15.8598 2.21046 15.9198 2.20046L16.5199 2.08047C16.9199 2.00047 17.3199 2.27046 17.3999 2.67046C17.4799 3.07046 17.2099 3.47047 16.8099 3.55047L16.2198 3.66047C16.0598 3.70047 11.8799 4.67047 12.7399 9.86047C12.7799 10.0905 12.7098 10.3305 12.5398 10.5005C12.4298 10.6405 9.94984 13.2105 7.09984 13.2105Z" />
<path d="M16.3501 19.2601C16.2401 19.2601 16.1301 19.2401 16.0301 19.1901C15.6601 19.0101 15.5001 18.5701 15.6801 18.1901C15.6901 18.1701 16.5401 16.3301 15.7901 14.3601C15.2101 12.8401 13.8401 11.6101 11.7101 10.6901C11.3301 10.5301 11.1501 10.0901 11.3201 9.71012C11.4901 9.33012 11.9201 9.15012 12.3101 9.32012C14.8401 10.4001 16.4801 11.9301 17.2101 13.8601C18.1801 16.4401 17.0901 18.7501 17.0401 18.8501C16.9001 19.1001 16.6301 19.2601 16.3501 19.2601Z" />
</svg>
